brandFactory_export/3.Masa/Parking _3Masa.svg

<?xml version="1.0" encoding="UTF-8"?>
<svg width="24px" height="24px" viewBox="0 0 24 24" version="1.1" xmlns="http://www.w3.org/2000/svg" xmlns:xlink="http://www.w3.org/1999/xlink">
    <title>3.Masa/Parking _3Masa</title>
    <g id="Symbols" stroke="none" stroke-width="1" fill="none" fill-rule="evenodd">
        <g id="3.Masa/Parking-_3Masa" fill="#5CB615" fill-rule="nonzero">
            <path d="M14.1193277,10.3495798 C13.8840336,10.5882353 13.6285714,10.7428571 13.3327731,10.8302521 C13.0705882,10.907563 12.5428571,10.994958 11.5277311,10.994958 L9.81008403,10.994958 L9.81008403,5.02521008 L11.3764706,5.02521008 C12.1831933,5.02521008 12.8386555,5.08571429 13.3226891,5.20336134 C13.6957983,5.29411765 13.9882353,5.43865546 14.1731092,5.61008403 C14.6840336,6.11092437 14.7882353,7.10588235 14.7882353,7.85546218 C14.7882353,9.03865546 14.5596639,9.90252101 14.1193277,10.3495798 M18.7344538,2.04033613 C17.9546218,1.29411765 16.9294118,0.756302521 15.6857143,0.440336134 C14.5294118,0.14789916 13.0504202,0 11.2857143,0 L4.00504202,0 C3.46722689,0 3.0302521,0.443697479 3.0302521,0.994957983 L3.0302521,22.6285714 C3.0302521,23.1764706 3.46722689,23.6235294 4.00504202,23.6235294 L8.83865546,23.6235294 C9.37647059,23.6235294 9.81344538,23.1764706 9.81344538,22.6285714 L9.81344538,16.1579832 L12.2470588,16.1579832 C13.7529412,16.1579832 15.0571429,15.9697479 16.1226891,15.5966387 C17.2521008,15.2033613 18.1966387,14.5781513 18.9193277,13.7378151 C20.1327731,12.3563025 20.7478992,10.3663866 20.7478992,7.82521008 C20.7445378,5.25042017 20.0689076,3.30084034 18.7344538,2.04033613" id="Parking-_3Masa"></path>
        </g>
    </g>
</svg>

<svg width="24" height="24" viewBox="0 0 24 24" xmlns="http://www.w3.org/2000/svg"><path d="M14.12 10.35c-.236.238-.491.393-.787.48-.262.078-.79.165-1.805.165H9.81v-5.97h1.566c.807 0 1.463.06 1.947.178.373.091.665.236.85.407.511.5.615 1.496.615 2.245 0 1.184-.228 2.048-.669 2.495m4.615-8.31c-.78-.746-1.805-1.284-3.048-1.6C14.529.148 13.05 0 11.286 0H4.005a.984.984 0 00-.975.995v21.634c0 .547.437.995.975.995h4.834a.986.986 0 00.974-.995v-6.471h2.434c1.506 0 2.81-.188 3.876-.561 1.13-.394 2.074-1.019 2.796-1.86 1.214-1.38 1.829-3.37 1.829-5.912-.003-2.575-.68-4.524-2.014-5.785" fill="#5CB615" fill-rule="nonzero"/></svg>
